X: 455
T: The dusty miller
C:anon.
O:Ireland
B:Francis O'Neill: "The Dance Music of Ireland" (1907) no. 455
R:Hop, Slip jig
Z:Transcribed by Frank Nordberg - http://www.musicaviva.com
F:http://www.musicaviva.com/abc/tunes/ireland/oneill-1001/oneill-1001-045
5.abc
m:Tn3 = n(3n/o/n/ m/n/
M:9/8
L:1/8
K:G
B2d d2(A B2G)|E2A A2(B c2A)|B2e d2(A BAG)|D2G G2(A B2A)|B2d d2(A B2G)|E2A
 A2(B c2A)|B2d d2A (BA)G|D2G G2(A B2)G|]
B2(d e2f) Tg3|(a2A) A2B c2A|B2(d e2f) g2a|g2(e d2c) B2G|B2(d e2f) Tg3|(a2
A) A2B c2A|(Bcd) (e2f) g2a|(gfe) (d2c) B2G|]
W:
W:
W:  From Musica Viva - http://www.musicaviva.com
W:  the Internet center for free sheet music downloads.


